/* SPDX-License-Identifier: Apache-2.0
 * Copyright 2011-2022 3 Point X */

#include "stdcycles.h"

surface node_set_normal(normal Direction = N, output normal Normal = N)
{
  N = Direction;
  Normal = Direction;
}
